!!!!SEGMENT: pl-sa--291-a-vii-51--004_lechleitner-ferdinand-simon--psalmodia-lauda-jerusalem.krn
!!!id: 17xx:429
!!!COM: Lechleitner, Ferdinand Simon
!!!COM-rism: pe30001903
!!!CDT: ~1700-~1800
!!!CNT:
!!!OTL: Psalmodia – Lauda Jerusalem
!!!PDT: 1731
!!!SMS-siglum: PL-SA
!!!SMS-shelfmark: 291/A VII 51
!!!NIFC-rismID: 1001077288
!!!URL-scan: http://bc.bdsandomierz.pl/dlibra/publication/1787/edition/1768/content
!!!ONB-nifc: UWAGA: części Psalmodii: Laudate Dominum, Laetatus, Nisi Dominus, Lauda Jerusalem
**kern	**fba	**kern	**kern	**kern	**text	**kern	**text	**kern	**text	**kern	**text
*part7	*	*part6	*part5	*part4	*part4	*part3	*part3	*part2	*part2	*part1	*part1
*staff7	*	*staff6	*staff5	*staff4	*staff4	*staff3	*staff3	*staff2	*staff2	*staff1	*staff1
*I"Baſso Conti.	*	*I"Violino 2do	*I"Violino 1mo	*I"Baſso	*	*I"Tenore	*	*I"Alto	*	*I"Canto	*
*I'BC	*	*I'Vno II	*I'Vno I	*I'B	*	*I'T	*	*I'A	*	*I'C	*
*clefF4	*	*clefG2	*clefG2	*clefF4	*	*clefC4	*	*clefC3	*	*clefC1	*
*k[f#]	*	*k[f#]	*k[f#]	*k[f#]	*	*k[f#]	*	*k[f#]	*	*k[f#]	*
*M12/8	*	*M12/8	*M12/8	*M12/8	*	*M12/8	*	*M12/8	*	*M12/8	*
=1	=1	=1	=1	=1	=1	=1	=1	=1	=1	=1	=1
!LO:TX:a:i:t=Gravament	!	!	!	!	!	!	!	!	!	!	!
!LO:TX:b:i:t=Lauda Jeruſalem	!	!LO:TX:b:i:t=Lauda Jeruſalem	!LO:TX:b:i:t=Lauda Jeruſalem	!LO:TX:b:i:t=Lauda Jeruſalem	!	!LO:TX:a:i:t=Lauda Jeruſalem	!	!	!	!	!
!	!	!	!	!	!	!LO:TX:a:t=P:problem:dwa znaki przykluczowe: F# i f#	!	!	!	!	!
!	!	!LO:N:vis=0	!LO:N:vis=0	!	!	!LO:N:vis=00	!	!	!	!	!
4G\	.	0.r	0.r	1.r	.	00.r	.	8b\	Lau-	8dd\	Lau-
.	.	.	.	.	.	.	.	8g\	-da	8b\	-da
8C/	.	.	.	.	.	.	.	8g\	Je-	8ee\	Je-
4.G\	.	.	.	.	.	.	.	8.b\	-ru-	8.dd\	-ru-
.	.	.	.	.	.	.	.	16a\	-ſalem	16cc\	-sa-
.	.	.	.	.	.	.	.	8g\	.	(>16b\LL	-lem
.	.	.	.	.	.	.	.	.	.	16cc\JJ)	.
8D\L	.	.	.	.	.	.	.	8.f#\	Do-	8.a\	Do-
!LO:TX:a:i:t=Solo	!	!	!	!	!	!	!	!	!	!	!
8F#\	.	.	.	.	.	.	.	.	.	.	.
.	.	.	.	.	.	.	.	16e\	-mi-	16g/	-mi-
8G\J	.	.	.	.	.	.	.	8f#\	-num	8a,\	-num
4.D\	.	.	.	.	.	.	.	8f#\	Lau-	8a\	lau-
.	.	.	.	.	.	.	.	8d\	-da	8f#/	-da
.	.	.	.	.	.	.	.	8g\	Je-	8b\	Je-
!	!	!LO:TX:b:t=P:problem:brak kreski taktowej	!	!LO:TX:b:t=P:problem:brak kreski taktowej	!	!	!	!	!	!	!
=2	=2	=2	=2	=2	=2	=2	=2	=2	=2	=2	=2
!	!	!	!	!LO:N:vis=2	!	!	!	!	!	!	!
8D\L	.	.	.	2.r	.	.	.	8.f#\	-ru-	8.a\	-ru-
8F#\	.	.	.	.	.	.	.	.	.	.	.
.	.	.	.	.	.	.	.	16e\	-ſa-	16g/	-ſa-
8G\J	.	.	.	.	.	.	.	8d\	-lem	8f#/	-lem
8F#\L	.	.	.	.	.	.	.	8.d\	Do-	8.a\	Do-
8D\	.	.	.	.	.	.	.	.	.	.	.
!	!	!	!	!	!	!	!	!LO:LB:g=original	!	!LO:N:vis=8	!
.	.	.	.	.	.	.	.	16d\	-mi-	16f#/	-mi-
8G\J	.	.	.	.	.	.	.	8d\	-nu(m)	8b\	-nu(m)
!	!	!	!	!	!	!	!	!	!	!LO:LB:g=original	!
8D\L	.	.	.	8.d\	Quo-	.	.	8.f#\	De-	8.a\	De-
8F#\	.	.	.	.	.	.	.	.	.	.	.
.	.	.	.	16d\	-niam	.	.	16a\	-um	16a\	-um
8G\J	.	.	.	8d\	.	.	.	8g\	tu-	8a\	tu-
!LO:TX:a:t=P:problem:mixed beam	!	!	!	!	!	!	!	!	!	!	!
8C\L	6 5	.	.	8c\L	Con-	.	.	8g\	-um	(>16b\LL	-um
.	.	.	.	.	.	.	.	.	.	16a\JJ)	.
8D\	5 4	.	.	8A\J	.	.	.	(>8g\L	ſi-	8.a\L	ſi-
8DD/J	X 3	.	.	8d\	-for-	.	.	8f#\J)	.	.	.
.	.	.	.	.	.	.	.	.	.	16g\Jk	.
!	!	!LO:TX:b:t=P:problem:brak kreski taktowej	!	!	!	!	!	!	!	!	!
=3	=3	=3	=3	=3	=3	=3	=3	=3	=3	=3	=3
!	!	!	!LO:TX:b:t=P:problem:brak kreski taktowej	!	!	!	!	!	!	!	!
4.GG/	5 3	8b/L	8dd\L	4G\	-ta-	.	.	4.g\	-on	4.g/	-on
.	6 4	8g/	8b\	.	.	.	.	.	.	.	.
.	.	8cc/J	8ee\J	8G,\	-vit	.	.	.	.	.	.
8G\L	5 3	8.b/L	8.dd\L	8G\	ſe-	.	.	4r	.	4r	.
8B\	.	.	.	8B\	-ras	.	.	.	.	.	.
.	.	16a/K	16cc\K	.	.	.	.	.	.	.	.
8c\J	.	8g/J	8b\J	8c\	po-	.	.	8r	.	8r	.
!LO:LB:g=original	!	!	!	!	!	!	!	!LO:N:vis=2	!	!LO:N:vis=2	!
4G\	.	8b/L	8dd\L	8G\	-rta-	.	.	2.r	.	2.r	.
.	.	8g/	8b\	8G\	-ru(m)	.	.	.	.	.	.
8r	.	8cc/J	8ee\J	8G\	por-	.	.	.	.	.	.
8G\L	.	8.b/L	8.dd\L	8G\	-ta-	.	.	.	.	.	.
8B\	.	.	.	8B\	-ru(m)	.	.	.	.	.	.
.	.	16a/K	16cc\K	.	.	.	.	.	.	.	.
8c\J	.	8f#/J	8b\J	8c\	tu-	.	.	.	.	.	.
!	!	!	!	!LO:LB:g=original	!	!	!	!LO:TX:b:t=P:problem:brak kreski taktowej	!	!LO:TX:b:t=P:problem:brak kreski taktowej	!
=4	=4	=4	=4	=4	=4	=4	=4	=4	=4	=4	=4
!LO:TX:a:t=P:problem:mixed beam	!	!	!	!	!	!	!	!	!	!	!
!	!	!	!	!	!	!	!	!	!	!LO:N:vis=00	!
8d\L	.	8f#/L	8a/L	8d\	-a-	.	.	1.r	.	00.r	.
8D/J	.	8d/	8f#/	4d\	-rum	.	.	.	.	.	.
8r	.	8g/J	8b/J	.	.	.	.	.	.	.	.
!	!	!	!	!LO:N:vis=8	!	!	!	!	!	!	!
8F#\L	X 6	4.f#/	4.a/	4r	.	.	.	.	.	.	.
8D\	.	.	.	.	.	.	.	.	.	.	.
8G\J	.	.	.	8D/	be-	.	.	.	.	.	.
4.D\	5 3	8a/L	8ff#\L	8G\	-ne-	.	.	.	.	.	.
.	6 4	8f#/	8dd\	8D/	-di-	.	.	.	.	.	.
.	.	8b/J	8gg\J	8D/	-xit	.	.	.	.	.	.
8.D\L	.	8.a/L	8.ff#\L	8.D/	fi-	.	.	.	.	.	.
16E\K	.	16g/K	16ee\K	16E\	-li-	.	.	.	.	.	.
8F#\J	.	8f#/J	8dd\J	8F#\	-is	.	.	.	.	.	.
!	!	!	!	!	!	!LO:TX:b:t=P:problem:brak kreski taktowej	!	!LO:TX:b:t=P:problem:brak kreski taktowej	!	!	!
=5	=5	=5	=5	=5	=5	=5	=5	=5	=5	=5	=5
8G\L	.	8b/L	8ee\L	8G\	tu-	1.r	.	8r	.	.	.
8E\	.	8f#/	8.ee\	8E\	-is	.	.	8r	.	.	.
8A\J	X 7	8g/J	.	8A\	in	.	.	8a\	Qui	.	.
.	.	.	16dd\Jk	.	.	.	.	.	.	.	.
!	!	!	!LO:N:vis=4	!	!	!	!	!	!	!	!
8D\L	.	4.f#/	4.dd\	4.D/	te	.	.	8.a\	po-	.	.
8F#\	.	.	.	.	.	.	.	.	.	.	.
.	.	.	.	.	.	.	.	16d\	-ſu-	.	.
8G\J	.	.	.	.	.	.	.	8d\	-it	.	.
!	!	!LO:N:vis=2	!LO:N:vis=2	!	!	!	!	!	!	!	!
8D\L	.	2.r	2.r	4r	.	.	.	8r	.	.	.
8G\	.	.	.	.	.	.	.	8b\	fi-	.	.
8F#\J	.	.	.	8r	.	.	.	8a\	-nes	.	.
8E\L	.	.	.	4r	.	.	.	4g\	tu-	.	.
8C#X\	.	.	.	.	.	.	.	.	.	.	.
8D\J	.	.	.	8r	.	.	.	8f#\	-os	.	.
!LO:LB:g=original	!	!LO:TX:b:t=P:problem:brak kreski taktowej	!LO:TX:b:t=P:problem:brak kreski taktowej	!	!	!LO:TX:b:t=P:problem:brak kreski taktowej	!	!LO:LB:g=original	!	!	!
=6	=6	=6	=6	=6	=6	=6	=6	=6	=6	=6	=6
!	!	!LO:N:vis=00	!LO:N:vis=00	!LO:N:vis=00	!	!LO:N:vis=2	!	!	!	!	!
8AA/L	X #	00.r	00.r	00.r	.	2.r	.	8e\	pa-	.	.
8C#X/	.	.	.	.	.	.	.	8A/	-cem	.	.
8D/J	.	.	.	.	.	.	.	8f#\	et	.	.
8E\L	X 3	.	.	.	.	.	.	8.g\	a-	.	.
8D\	.	.	.	.	.	.	.	.	.	.	.
.	.	.	.	.	.	.	.	16f#\	-di-	.	.
8E\J	.	.	.	.	.	.	.	16g\	-pe	.	.
.	.	.	.	.	.	.	.	16e\	fru-	.	.
8F#\L	.	.	.	.	.	8r	.	4a\	-men-	.	.
8D\	X 6	.	.	.	.	8d\	Qui	.	.	.	.
8G\J	.	.	.	.	.	8d\	e-	8g\	-ti	.	.
!LO:TX:a:t=P:problem:mixed beam	!	!	!	!	!	!	!	!	!	!	!
8D\L	.	.	.	.	.	8d\	-mit-	8.f#\	ſa-	.	.
8A\	6 4	.	.	.	.	8d\	-tit	.	.	.	.
.	X 3	.	.	.	.	.	.	16e\	-ci-	.	.
8AA/J	X 7	.	.	.	.	8c#X\	e-	8f#\	-at	.	.
=7	=7	=7	=7	=7	=7	=7	=7	=7	=7	=7	=7
8D\L	.	.	.	.	.	8.d\	-lo-	4d\	te	.	.
8F#\	.	.	.	.	.	.	.	.	.	.	.
.	.	.	.	.	.	16c\	-qui-	.	.	.	.
8G\J	.	.	.	.	.	8B\	-um	8r	.	.	.
8A\L	.	.	.	.	.	(<8A/L	ſu-	4r	.	.	.
8F#\	.	.	.	.	.	8B/J)	.	.	.	.	.
8G\J	.	.	.	.	.	8G/	-um	8r	.	.	.
!	!	!	!	!	!	!	!	!LO:N:vis=2	!	!	!
8D\L	.	.	.	.	.	8F#/	ter-	2.r	.	.	.
8F#\	.	.	.	.	.	8D/	-rae	.	.	.	.
8G\J	.	.	.	.	.	8A/	ve-	.	.	.	.
4.D\	.	.	.	.	.	8.F#/	-lo-	.	.	.	.
.	.	.	.	.	.	16G/	-ci-	.	.	.	.
.	.	.	.	.	.	8A/	-ter	.	.	.	.
!	!	!	!	!	!	!LO:LB:g=original	!	!LO:TX:b:t=P:problem:brak kreski taktowej	!	!LO:TX:b:t=P:problem:brak kreski taktowej	!
=8	=8	=8	=8	=8	=8	=8	=8	=8	=8	=8	=8
!	!	!	!	!	!	!	!	!	!	!LO:N:vis=2	!
!	!	!	!	!	!	!	!	!LO:N:vis=0	!	!	!
8r	.	.	.	.	.	(>8B\L	Cur-	0.r	.	2.r	.
8r	.	.	.	.	.	8A\J)	.	.	.	.	.
8G\	.	.	.	.	.	8B\	-rit	.	.	.	.
8A\L	.	.	.	.	.	(>8c\L	Cur-	.	.	.	.
8G\	.	.	.	.	.	8B\J)	.	.	.	.	.
8A\J	.	.	.	.	.	8c\	-rit	.	.	.	.
8B\L	.	.	.	.	.	8.d\	Cur-	.	.	4r	.
8F#\	.	.	.	.	.	.	.	.	.	.	.
.	.	.	.	.	.	16c\	-rit	.	.	.	.
8G\J	.	.	.	.	.	8B\	ſer-	.	.	8r	.
8C/L	.	.	.	.	.	8A/	-mo	.	.	8r	.
8D/	.	.	.	.	.	8.A/L	e-	.	.	8dd\	qui
8DD/J	.	.	.	.	.	.	.	.	.	8dd\	dat
.	.	.	.	.	.	16G/J	.	.	.	.	.
!LO:LB:g=original	!	!	!	!	!	!	!	!	!	!	!
=9	=9	=9	=9	=9	=9	=9	=9	=9	=9	=9	=9
4GG/	.	.	.	.	.	4.G/	-jus	.	.	(>8b\L	ni-
.	.	.	.	.	.	.	.	.	.	8a\J)	-vem
8G\	.	.	.	.	.	.	.	.	.	8g/	.
4G\	4 2	.	.	.	.	4r	.	.	.	(>8cc\L	ſi-
.	.	.	.	.	.	.	.	.	.	8a\J)	-cut
8F#\	.	.	.	.	.	8r	.	.	.	8dd\	.
!	!	!	!	!	!	!LO:N:vis=2	!	!	!	!	!
8G\L	.	.	.	.	.	2.r	.	.	.	4g/	la-
8B\	.	.	.	.	.	.	.	.	.	.	.
8c\J	.	.	.	.	.	.	.	.	.	8g/	-nam
4G\	.	.	.	.	.	.	.	.	.	8.cc\	ne-
.	.	.	.	.	.	.	.	.	.	16cc\	-bu-
!	!	!	!	!	!	!	!	!	!	!LO:LB:g=original	!
8C/	.	.	.	.	.	.	.	.	.	8ee\	-lam
!	!	!	!	!	!	!	!	!LO:TX:b:t=P:problem:brak kreski taktowej	!	!	!
!	!	!LO:TX:b:t=P:problem:brak kreski taktowej	!	!LO:TX:b:t=P:problem:brak kreski taktowej	!	!	!	!LO:PB:g=original	!	!	!
=10	=10	=10	=10	=10	=10	=10	=10	=10	=10	=10	=10
!	!	!LO:N:vis=2	!LO:N:vis=2	!	!	!	!	!LO:N:vis=2	!	!	!
!	!	!	!LO:TX:b:t=P:problem:brak kreski taktowej	!LO:N:vis=2	!	!LO:N:vis=2	!	!	!	!	!
8.G\L	.	2.r	2.r	2.r	.	2.r	.	2.r	.	8.dd\	ſi-
16A\K	.	.	.	.	.	.	.	.	.	16cc\	-cut
8B\J	.	.	.	.	.	.	.	.	.	8b\	Ci-
!LO:TX:a:t=P:problem:mixed beam	!	!	!	!	!	!	!	!	!	!	!
8c\L	.	.	.	.	.	.	.	.	.	16ee\	-ne-
.	.	.	.	.	.	.	.	.	.	16a\	-rem
8d\	.	.	.	.	.	.	.	.	.	4bt>\	ſpar-
8D/J	.	.	.	.	.	.	.	.	.	.	.
!LO:TX:i:a:t=Tutti	!	!	!	!	!	!	!	!	!	!	!
8G\L	.	8r	8r	8r	.	8r	.	8r	.	8a\	-git
8G\	.	8dd\L	8bb\L	8G\	Mit-	8B\	mit-	8g\	mit-	8dd\	Mit-
8A\J	.	8ff#\J	8aa\J	8A\	-tit	8c\	-tit	8f#\	-tit	8cc\	-tit
*	*	*	*	*	*ij	*	*	*	*ij	*	*
!	!	!LO:LB:g=original	!	!	!	!	!	!	!	!	!
8B\L	.	8dd\L	8gg\L	8B\	Mit-	8d\	mit-	8g\	mit-	8b\	Crys-
8G\	.	8dd\	8gg\	8G\	-tit	8B\	-tit	8g\	-tit	8b\	-tal-
*	*	*	*	*	*Xij	*	*	*	*Xij	*	*
8c\J	.	8ee\J	8gg\J	8c\	Cry-	8c\	Cryſ-	8g\	Cryſ-	8ee\	-lum
=11	=11	=11	=11	=11	=11	=11	=11	=11	=11	=11	=11
!	!	!LO:TX:a:t=P:problem:mixed beam	!	!	!	!	!	!	!	!	!
8B\L	X 6	8dd\L	8aa\L	(8B\L	-ſtal-	(>8d\L	-tal-	4g\	-tal-	4dd\	Mit-
8A\	.	8g/	8b\	8G\J)	.	8c\J)	.	.	.	.	.
8G\J	.	8a/J	8cc\J	8G\	-lum	8B\	-lum	8g\	-lum	8dd\	-tit
!	!	!	!LO:LB:g=original	!	!	!LO:LB:g=original	!	!	!	!	!
4r	.	8b/L	8dd\L	4r	.	4r	.	4r	.	4r	.
.	.	8g/	8b\	.	.	.	.	.	.	.	.
8r	.	8cc/J	8ee\J	8r	.	8r	.	8r	.	8r	.
!	!	!	!	!LO:PB:g=original	!	!	!	!	!	!	!
8r	.	8b\L	8dd\L	8r	.	8r	.	8r	.	8r	.
*	*	*	*	*	*	*	*ij	*	*	*	*
8G\L	.	8dd\	8bb\	8G\	Mit-	8B\	mit-	8g\	Mit-	8dd\	Mit-
8A\J	X 6	8gg\J	8aa\J	8A\	-tit	8c\	-tit	8f#\	-tit	8cc\	-tit
8B\L	X 6	8dd\L	8gg\L	8B\	mit-	8d\	mit-	8g\	Crys-	8b\	mit-
8G\	.	8dd\	8gg\	8G\	-tit	8B\	-tit	8g\	-tal-	8b\	-tit
!	!	!	!	!	!	!	!	!	!	!LO:LB:g=original	!
8c\J	.	8cc\J	8gg\J	8c\	Cry-	8e\	Cryſ-	8g\	-lum	8cc\	Cryſ-
=12	=12	=12	=12	=12	=12	=12	=12	=12	=12	=12	=12
8B\L	X 6	8b\L	8gg\L	(>8B\L	-stal-	4d\	-tal-	4g\	mit-	(>8dd\L	-tal-
8A\	.	8cc\	8aa\	8A\J)	.	.	.	.	.	8cc\J)	.
8G\J	.	8dd\J	8bb\J	8G,\	-lu(m)	8d,\	-lum	8g\	-tit	8b\	-lum
*	*	*	*	*	*	*	*Xij	*	*	*	*
!LO:LB:g=original	!	!	!	!	!	!	!	!	!	!	!
8F#\L	X 6	8dd\L	8ff#\L	(>8F#\L	ſu-	4d\	ſu-	4a\	ſu-	4a\	ſu-
8E\	.	8ee\	8gg\	8E\J)	.	.	.	.	.	.	.
8D\J	.	8ff#\J	8aa\J	8D,/	-am	8d\	-am	8a\	-am	8a,\	-am
!	!	!	!	!	!	!	!	!LO:LB:g=original	!	!	!
8G\L	6 5	8ee\L	8gg\L	8G\	ſi-	8d\	ſi-	8g\	ſi-	8b\	ſi-
8E\	X 7	8ee\	8gg\	8E\	-cut	8d\	-cut	8g\	-cut	8b\	-cut
8A\J	X #	8cc#X\J	8gg\J	8A\	buc-	8e\	buc-	8a\	buc-	8cc#X\	buc-
4D\	.	8dd\L	8aa\L	8D/	-cel-	4f#\	-cel-	4a\	-cel-	4dd\	-cel-
.	.	8dd\	8ff#\	4D/	-las	.	.	.	.	.	.
8r	.	8ee\J	8gg\J	.	.	8f#\	-las	8a\	-las	8dd\	-las
=13	=13	=13	=13	=13	=13	=13	=13	=13	=13	=13	=13
8r	.	8ff#\L	8aa\L	8r	.	8r	.	8r	.	4dd\	an-
8D\L	.	8dd\	8ff#\	8D/	an-	8f#\	an-	8a\	an-	.	.
8E\J	X 6|	8gg\J	8bb\J	8E\	-te	8e\	-te	8g\	-te	8cc#X\	-te
8.F#\L	X 6	4.dd\	8aa\L	8.F#\	fa-	8.d\	fa-	8.f#\	fa-	8.dd\	faci
.	.	.	8ff#\J	.	.	.	.	.	.	.	.
16E\K	.	.	.	16E\	-ci-	16d\	-ci-	16g\	-ciem	16dd\	-em
8F#\J	.	.	8r	8F#\	-em	8d\	-em	8a\	.	8dd\	.
!	!	!LO:N:vis=2	!LO:N:vis=2	!	!	!	!	!	!	!	!
!	!	!	!	!LO:LB:g=original	!	!LO:PB:g=original	!	!	!	!	!
8G\L	X 5_	2.r	2.r	8.G\	fri-	8.B\	fri-	8.g\	fri-	8.dd\	fri-
8F#\	.	.	.	.	.	.	.	.	.	.	.
!	!	!	!	!	!	!	!	!	!	!LO:SIC:s=16dd	!
!	!	!	!	!	!	!	!	!	!	!LO:N:vis=8	!
.	.	.	.	16F#\	-go-	16B\	-go-	16a\	-goris	16dd\	-go-
8G\J	x	.	.	8G\	-ris	8B\	-ris	8b\	.	8ee\	-ris
8A\L	5_ 7_	.	.	8A\	e-	8e\	e-	8a\	e-	8cc#X\	e-
8G\	.	.	.	8G\	-jus	8e\	-jus	8a\	-jus	8cc#\	-jus
8A\J	X 6	.	.	8A\	quis	8c#X\	quiſ	8a\	quis	8ff#\	quis
!	!	!	!	!	!	!	!	!	!	!LO:PB:g=original	!
=14	=14	=14	=14	=14	=14	=14	=14	=14	=14	=14	=14
8B\L	.	4r	4r	8B\	ſus-	8d\	ſus-	8.f#\	ſus-	8.dd\	sus-
8G\	6 5	.	.	8G\	-ti-	8B\	-ti-	.	.	.	.
.	.	.	.	.	.	.	.	16g\	-ti-	16ee\	-ti-
8A\J	X #	8r	8r	8A\	-ne-	8A/	-ne-	8e\	-ne-	8cc#X\	-ne-
4.D/	.	8r	8r	4.D/	-bit	4A/	-bit	4.f#\	-bit	4.dd\	-bit
.	.	8f#/L	8dd\L	.	.	.	.	.	.	.	.
.	.	8g/J	8ee\J	.	.	8r	.	.	.	.	.
!	!	!LO:TX:a:t=P:problem:mixed beam	!	!	!	!	!	!LO:LB:g=original	!	!	!
8D/L	.	8a/L	8ff#\L	8D/	e-	4r	.	8f#\	e-	4r	.
8D/	.	8f#/	8dd\	8D/	-mit-	.	.	8f#\	-mit-	.	.
8D/J	.	8dd\J	8gg\J	8D/	-tet	8r	.	8f#\	-tet	8r	.
!	!	!LO:LB:g=original	!	!	!	!	!	!	!	!	!
4G\	.	8.b/L	8.dd\L	4F#\	ver-	8d\	e-	4g\	ver-	8b\	E-
.	.	.	.	.	.	8d\	-mit-	.	.	8b\	-mit-
.	.	16b/K	16dd\K	.	.	.	.	.	.	.	.
8G\	.	8b/J	8dd\J	8G\	-bu(m)	8d\	-tet	8g\	-bu(m)	8b\	-tet
!	!	!	!LO:LB:g=original	!	!	!	!	!	!	!	!
=15	=15	=15	=15	=15	=15	=15	=15	=15	=15	=15	=15
*	*	*	*	*	*	*	*	*	*ij	*	*
8E\L	.	8ee\L	8gg\L	8E\	e-	4e\	ver-	8g\	e-	4ee\	ver-
8E\	.	8b\	8ee\	8E\	-mit-	.	.	8g\	-mit-	.	.
8E\J	.	8ee\J	8gg\J	8E\	-tet	8e\	-bu(m)	8g\	-tet	8ee\	-bu(m)
4A\	X #	8.cc#X\L	8.ee\L	4A\	ver-	8e\	e-	4a\	ver-	8cc#X\	e-
.	.	.	.	.	.	8e\	-mit-	.	.	8cc#\	-mit-
.	.	16cc#\K	16ee\K	.	.	.	.	.	.	.	.
8A\	.	8cc#\J	8ee\J	8A\	-bu(m)	8e\	-tet	8a,\	-bu(m)	8cc#\	-tet
*	*	*	*	*	*	*	*	*	*Xij	*	*
!LO:LB:g=original	!	!	!	!	!	!	!	!	!	!	!
4F#\	X 7	8ff#\L	8aa\L	4F#\	ſu-	4e\	ver-	4a\	ſu-	4ff#\	ſu-
.	.	8cc#X\	8ff#\	.	.	.	.	.	.	.	.
8F#\	X 6|	8ff#\J	8aa\J	8F#\	-u(m)	8d#X\	-bu(m)	8a\	-um	8ff#\	-u(m)
8G\L	X 6	8ee\L	8bb\L	8G\	et	8B\	et	8g\	et	8ee\	et
!	!	!	!	!LO:LB:g=original	!	!LO:LB:g=original	!	!	!	!	!
8F#\	X 6|	8ff#\	8aa\	8F#\	li-	8B\	li-	8a\	li-	8dd#X\	li-
8E\J	X n	8gg\J	8bb\J	8E\	-que-	8B\	-que-	8g\	-que-	8ee\	-que-
=16	=16	=16	=16	=16	=16	=16	=16	=16	=16	=16	=16
8A\L	6 5	8.ee\L	8aa\L	8.A\	-fa-	8.c\	-fa-	8.f#\	-fa-	8.ee\	-fa-
8G\	.	.	8bb\	.	.	.	.	.	.	.	.
.	.	16ee\K	.	16G\	-ci-	16B\	-ci-	16g\	-ciet	16ee\	-ci-
8F#\J	X 7	8ee\J	8ccc\J	8F#\	-et	8A/	-et	8a\	.	8ff#\	-et
!	!	!	!	!	!	!	!	!	!	!LO:LB:g=original	!
4B\	6 4	8ee\L	8bb\L	(>4B\	e-	4.B\	e-	4g\	e-	(>4gg\	e-
.	.	8ee\	8bb\	.	.	.	.	.	.	.	.
8BB/	X #	8dd#X\J	8bb\J	8BB/)	.	.	.	8f#\	-a	8ff#X\)	.
8E\L	X n	8ee\L	8bb\L	8E\	-a	8B\	-a	8g,\	.	8gg,\	-a
8E\	.	8b\	8gg\	8E\	fla-	8e\	fla-	8g\	fla-	8b\	fla-
!	!	!	!	!	!	!	!	!LO:LB:g=original	!	!	!
8F#\J	X 6|	8dd#X\J	8ff#\J	8F#\	-bit	8d#X\	-bit	8a\	-bit	8a\	-bit
4G\	X 6	8.b\L	8.ee\L	8.G\	ſpi-	8.e\	ſpi-	8.g\	ſpi-	8.b\	ſpi-
!	!	!	!LO:SIC:s=16ee	!	!	!	!	!	!	!	!
!	!	!	!LO:N:vis=8	!	!	!	!	!	!	!	!
.	.	16cc\K	16ee\K	16G\	-ri-	16e\	-ri-	16g\	-ri-	16b\	-ri-
8D#X\	.	8b\J	8dd#X\J	8D#X/	-tus	8f#\	-tus	8f#\	-tus	8b\	-tus
=17	=17	=17	=17	=17	=17	=17	=17	=17	=17	=17	=17
8E\L	X n	8b\L	8bb\L	8E\	e-	8e\	e-	8g\	e-	8b\	e-
8BB\J	X #	8dd#X\J	8bb\J	8BB/	-jus	8d#X\	-jus	8f#\	-jus	8b\	-jus
8r	.	8r	8r	8B\	et	8d#\	et	8f#\	et	8r	.
8r	.	8r	8r	4B\	flu-	8e\	flu-	8g\	flu-	8r	.
8r	.	8r	8r	.	.	8d#X\	-ent	8f#\	-ent	8r	.
8BB/	X #	8dd#X\	8bb\	8B\	-ent	8B\	et	8f#\	et	8dd#X\	et
!	!	!LO:LB:g=original	!	!	!	!	!	!	!	!	!
8E\L	X n	8ee\L	8bb\L	(>8E\L	flu-	4.B\	flu-	(>8g\L	flu-	4.ee\	flu-
8F#\	.	8dd#X\	8aa\	8F#\	.	.	.	8a\	.	.	.
8G\J	.	8ee\J	8gg\J	8G\J)	.	.	.	8b\J)	.	.	.
!LO:TX:a:t=P:problem:mixed beam	!	!	!	!	!	!	!	!	!	!	!
!	!	!	!	!LO:LB:g=original	!	!	!	!	!	!	!
8E\L	.	8ee\L	8bb\L	8E\	-ent	8B\	-ent	8g\	-ent	8ee\	-ent
!	!	!	!	!LO:TX:a:t=P:problem:mixed beam	!	!	!	!	!	!	!
8B\	X 4	8ee\	8bb\	(>8B\L	a-	4B\	a-	(>8g\L	a-	(>8ee\L	a-
8BB/J	X #	8dd#X\J	8bb\J	8BB/J)	.	.	.	8f#\J)	.	8dd#X\J)	-quae
!	!	!	!	!	!	!LO:LB:g=original	!	!	!	!	!
=18	=18	=18	=18	=18	=18	=18	=18	=18	=18	=18	=18
4.E\	.	4ee\	8bb\	4E\	-quae	8B\	-quae	4g\	-quae	4.ee\	.
.	.	.	8r	.	.	8e\	qui	.	.	.	.
!	!	!	!	!	!	!LO:TX:a:i:t=Solo:rj	!	!	!	!	!
.	.	8r	8r	8r	.	8e\	a-	8r	.	.	.
8r	.	4r	4r	4r	.	8.d#X\	-nun-	4r	.	4r	.
!LO:TX:a:t=P:problem:mixed beam	!	!	!	!	!	!	!	!	!	!	!
8B\L	.	.	.	.	.	.	.	.	.	.	.
.	.	.	.	.	.	16c#X\	-ci-	.	.	.	.
8BB/J	X #	8r	8r	8r	.	8B\	-at	8r	.	8r	.
!	!	!LO:N:vis=2	!LO:N:vis=2	!LO:N:vis=2	!	!	!	!LO:N:vis=2	!	!LO:N:vis=2	!
!	!	!	!LO:LB:g=original	!	!	!	!	!	!	!	!
8.G\L	X 6	2.r	2.r	2.r	.	8.e\	ver-	2.r	.	2.r	.
16F#\K	X 6|	.	.	.	.	16d#X\	-bum	.	.	.	.
8E\J	.	.	.	.	.	8e\	ſu-	.	.	.	.
!LO:LB:g=original	!	!	!	!	!	!	!	!	!	!	!
8A\L	.	.	.	.	.	(>16f#\LL	-um	.	.	.	.
.	.	.	.	.	.	16e\JJ)	.	.	.	.	.
8F#\	.	.	.	.	.	(>8e\L	Ja-	.	.	.	.
8B\J	.	.	.	.	.	8d#X\J)	.	.	.	.	.
!	!	!	!LO:TX:b:t=P:problem:brak kreski taktowej	!	!	!	!	!LO:TX:b:t=P:problem:brak kreski taktowej	!	!LO:TX:b:t=P:problem:brak kreski taktowe	!
=19	=19	=19	=19	=19	=19	=19	=19	=19	=19	=19	=19
!	!	!	!	!LO:N:vis=2	!	!	!	!	!	!	!
!	!	!LO:N:vis=00	!LO:N:vis=00	!	!	!	!	!LO:N:vis=00	!	!LO:N:vis=00	!
8E\L	.	00.r	00.r	2.r	.	4e,\	-cob	00.r	.	00.r	.
8F#\	.	.	.	.	.	.	.	.	.	.	.
8G\J	.	.	.	.	.	8e\	Ju-	.	.	.	.
4F#\	X 6	.	.	.	.	8d\	-ſti-	.	.	.	.
.	.	.	.	.	.	16d\	-tia	.	.	.	.
.	.	.	.	.	.	16e\	.	.	.	.	.
8D\	X 7	.	.	.	.	16d\	et	.	.	.	.
.	.	.	.	.	.	16c\	Ju-	.	.	.	.
8G\L	.	.	.	4r	.	8.B\	-di-	.	.	.	.
8F#\	.	.	.	.	.	.	.	.	.	.	.
.	.	.	.	.	.	16B\	-ci-	.	.	.	.
!	!	!	!	!	!	!LO:LB:g=original	!	!	!	!	!
8E\J	.	.	.	8r	.	8G/	-a	.	.	.	.
8D\L	.	.	.	8r	.	4d\	ſu-	.	.	.	.
8D\	.	.	.	8r	.	.	.	.	.	.	.
8E\J	.	.	.	8d\	non	8d\	-a	.	.	.	.
=20	=20	=20	=20	=20	=20	=20	=20	=20	=20	=20	=20
8F#\L	.	.	.	8d\	non	8r	.	.	.	.	.
8D\J	.	.	.	8r	.	8A/	et	.	.	.	.
8r	.	.	.	8r	.	8B\	Ju-	.	.	.	.
8r	.	.	.	8r	.	8.c\	-di-	.	.	.	.
8E\L	X 6_	.	.	8E\	fe-	.	.	.	.	.	.
.	.	.	.	.	.	16B\	-ci-	.	.	.	.
8F#\J	.	.	.	8F#\	-cit	8A/	-a	.	.	.	.
!LO:TX:a:t=P:problem:mixed beam	!	!	!	!	!	!	!	!	!	!	!
8G\L	x	.	.	8.G\	ta-	16B\	ſu-	.	.	.	.
.	.	.	.	.	.	16c\	-a	.	.	.	.
8D\	X 4	.	.	.	.	8A/	Iſ-	.	.	.	.
.	.	.	.	16G\	-li-	.	.	.	.	.	.
8DD/J	X 3	.	.	8F#\	-ter	8d\	-ra-	.	.	.	.
!LO:TX:a:t=P:problem:przekreślona kreska taktowa	!	!	!	!	!	!	!	!	!	!	!
8.G\L	.	.	.	8.B\	om-	4.B\	-el	.	.	.	.
16F#\K	.	.	.	16c#X\	-ni	.	.	.	.	.	.
8E\J	X 6	.	.	8d\	na-	.	.	.	.	.	.
=21	=21	=21	=21	=21	=21	=21	=21	=21	=21	=21	=21
!LO:TX:a:t=P:problem:mixed beam	!	!	!	!	!	!	!	!	!	!	!
!	!	!	!	!	!	!LO:N:vis=00	!	!	!	!	!
8D\L	.	.	.	8G\	-ti-	00.r	.	.	.	.	.
!	!	!	!	!LO:TX:a:t=P:problem:mixed beam	!	!	!	!	!	!	!
8A\	.	.	.	(>8A\L	-o-	.	.	.	.	.	.
8AA/J	.	.	.	8AA/J)	.	.	.	.	.	.	.
!	!	!	!	!LO:LB:g=original	!	!	!	!	!	!	!
8BB/L	.	.	.	8D,/	-ni	.	.	.	.	.	.
8C#X/	.	.	.	8A\	et	.	.	.	.	.	.
8D/J	.	.	.	8A\	Ju-	.	.	.	.	.	.
8E/L	.	.	.	8.G\	-di-	.	.	.	.	.	.
8C#X/	.	.	.	.	.	.	.	.	.	.	.
.	.	.	.	16G\	-ci-	.	.	.	.	.	.
8D/J	.	.	.	8F#\	-a	.	.	.	.	.	.
!LO:TX:a:t=P:problem:mixed beam	!	!	!	!	!	!	!	!	!	!	!
8AA/L	.	.	.	4E\	ſua	.	.	.	.	.	.
8A\	.	.	.	.	.	.	.	.	.	.	.
8G\J	.	.	.	8AA/	.	.	.	.	.	.	.
!LO:LB:g=original	!	!	!	!	!	!	!	!	!	!	!
=22	=22	=22	=22	=22	=22	=22	=22	=22	=22	=22	=22
8.F#\L	.	.	.	4r	.	.	.	.	.	.	.
16E\K	.	.	.	.	.	.	.	.	.	.	.
8D\J	.	.	.	8r	.	.	.	.	.	.	.
8G\L	.	.	.	8r	.	.	.	.	.	.	.
8F#\	.	.	.	8A\	non	.	.	.	.	.	.
8E\J	.	.	.	8G\	Ma-	.	.	.	.	.	.
8D\L	.	.	.	8.F#\	-ni-	.	.	.	.	.	.
8E\	.	.	.	.	.	.	.	.	.	.	.
.	.	.	.	16E\	-fe-	.	.	.	.	.	.
8F#\J	.	.	.	8D/	-ſta-	.	.	.	.	.	.
!LO:TX:a:t=P:problem:mixed beam	!	!	!	!	!	!	!	!	!	!	!
8G\L	6 5	.	.	8G\	-vit	.	.	.	.	.	.
!	!	!	!	!LO:TX:a:t=P:problem:mixed beam	!	!	!	!	!	!	!
8A\	X 4	.	.	(>8A\L	e-	.	.	.	.	.	.
.	X 3	.	.	.	.	.	.	.	.	.	.
8AA/J	X #	.	.	8AA/J)	.	.	.	.	.	.	.
!	!	!LO:TX:b:t=P:problem:brak kreski taktowej	!LO:TX:b:t=P:problem:brak kreski taktowej	!	!	!	!	!LO:TX:b:t=P:problem:brak kreski taktowej	!	!LO:TX:b:t=P:problem:brak kreski taktowe	!
=23	=23	=23	=23	=23	=23	=23	=23	=23	=23	=23	=23
!LO:TX:i:b:t=Gloria	!	!	!	!	!	!	!	!	!	!	!
!	!	!LO:N:vis=0	!LO:N:vis=0	!	!	!	!	!	!	!	!
8D\L	.	0.r	0.r	4.D/	-is	.	.	8.f#\	Glo-	8.a\	Glo-
8F#\	.	.	.	.	.	.	.	.	.	.	.
.	.	.	.	.	.	.	.	16d\	-ri-	16f#/	-ri-
!	!	!	!	!	!	!	!	!	!	!LO:LB:g=original	!
8G\J	.	.	.	.	.	.	.	8g\	-a	8b\	-a
!	!	!	!	!	!	!	!	!LO:LB:g=original	!	!	!
4.D/	.	.	.	4r	.	.	.	8f#\	Pa-	8a\	Pa-
.	.	.	.	.	.	.	.	8e\	-tri	8g/	-tri
.	.	.	.	8r	.	.	.	8d\	et	8f#/	et
!	!	!	!	!LO:N:vis=2	!	!	!	!	!	!	!
8AA/L	.	.	.	2.r	.	.	.	8.c#X/	fi-	8.e/	fi-
!LO:SIC:s=C#	!	!	!	!	!	!	!	!	!	!	!
8C/	.	.	.	.	.	.	.	.	.	.	.
.	.	.	.	.	.	.	.	16c#/	-li-	16e/	-lio
8D/J	.	.	.	.	.	.	.	8c#/	-o	8e/	.
4AA/	X #	.	.	.	.	.	.	8r	.	8r	.
.	.	.	.	.	.	.	.	8c#X/	et	8e/	et
8r	.	.	.	.	.	.	.	8e\	ſpi-	8a\	ſpi-
=24	=24	=24	=24	=24	=24	=24	=24	=24	=24	=24	=24
!	!	!	!	!LO:N:vis=2	!	!	!	!	!	!	!
8D/L	.	.	.	2.r	.	.	.	8.d\	-ri-	8.f#/	-ri-
8C/	.	.	.	.	.	.	.	.	.	.	.
.	.	.	.	.	.	.	.	16d\	-tui	16f#/	-tui
8BB/J	.	.	.	.	.	.	.	8d\	.	8g/	.
8C/L	.	.	.	.	.	.	.	8r	.	4g/	ſan-
8D/	.	.	.	.	.	.	.	(>8d\L	San-	.	.
8DD/J	.	.	.	.	.	.	.	8c\J)	.	8f#/	.
!LO:TX:a:t=P:problem:mixed beam	!	!	!	!	!	!	!	!	!	!	!
8GG/L	.	.	.	4r	.	.	.	4.B/	-cto	4.g/	-cto
8G\	.	.	.	.	.	.	.	.	.	.	.
8F#\J	.	.	.	8G\	ſi-	.	.	.	.	.	.
4G\	.	.	.	8F#\	-cut	.	.	8r	.	4r	.
!	!	!	!	!LO:LB:g=original	!	!	!	!	!	!	!
.	.	.	.	8G\	e-	.	.	4r	.	.	.
8D\	.	.	.	8D/	-rat	.	.	.	.	8r	.
!	!	!LO:TX:b:t=P:problem:brak kreski taktowej	!	!	!	!LO:TX:b:t=P:problem:brak kreski taktowej	!	!	!	!LO:TX:b:t=P:problem:brak kreski taktowe	!
=25	=25	=25	=25	=25	=25	=25	=25	=25	=25	=25	=25
!	!	!	!LO:TX:b:t=P:problem:brak kreski taktowej	!	!	!	!	!	!	!	!
8C/L	.	4r	4r	4E\	in	1.r	.	1.r	.	1.r	.
8AA/	.	.	.	.	.	.	.	.	.	.	.
!LO:TX:a:t=d	!	!	!	!	!	!	!	!	!	!	!
8D/J	.	8r	8r	8F#\	prin-	.	.	.	.	.	.
4.GG/	.	8b/L	8dd\L	8.G\	-ci-	.	.	.	.	.	.
.	.	8f#/	8b\	.	.	.	.	.	.	.	.
.	.	.	.	16G\	-pio	.	.	.	.	.	.
.	.	8cc/J	8ee\J	8G\	.	.	.	.	.	.	.
8G\L	.	8b/L	8dd\L	8G\	et	.	.	.	.	.	.
8A\	.	8g/J	8b\J	8A\	nunc	.	.	.	.	.	.
8B\J	.	8r	8r	8B\	et	.	.	.	.	.	.
!LO:LB:g=original	!	!	!	!	!	!	!	!	!	!	!
8c\L	.	8ee\L	8gg\L	4c\	ſem-	.	.	.	.	.	.
8E\	X 6	8cc\	8ee\	.	.	.	.	.	.	.	.
8F#\J	.	8ffn\J	8aa\J	8c\	-per	.	.	.	.	.	.
!	!	!	!	!	!	!	!	!LO:TX:b:t=P:problem:brak kreski taktowej	!	!LO:TX:b:t=P:problem:brak kreski taktowe	!
=26	=26	=26	=26	=26	=26	=26	=26	=26	=26	=26	=26
!LO:TX:a:t=P:problem:mixed beam	!	!	!	!	!	!LO:TX:b:t=P:problem:brak kreski taktowej	!	!	!	!	!
8C/L	.	8ee\L	8gg\L	8r	.	8r	.	8r	.	8r	.
8c\	.	8cc\	8ee\	8c\	et	8c\	et	8g\	et	8ee\	et
8B\J	.	8gg\J	8gg\J	8B\	in	8d\	in	8g\	in	8dd\	in
!	!	!	!	!	!	!	!	!	!	!LO:LB:g=original	!
8.c\L	.	8.ee\L	8.gg\L	8.c\	ſae-	8.c\	ſae-	8.g\	ſae-	8.ee\	ſae-
16c\K	.	16ee\K	16gg\K	16c\	-cu-	16c\	-cu-	16g\	-cu-	16ee\	-cu-
8G\J	.	8dd\J	8bb\J	8G\	-la	8B\	-la	8g\	-la	8dd\	-la
!	!	!	!	!	!	!LO:LB:g=original	!	!LO:LB:g=original	!	!	!
8A\L	.	8cc\L	8ee\L	8.A\	ſae-	8.A/	ſae-	8.e\	ſae-	8.cc\	ſae-
8G\	.	8cc\	8bb\	.	.	.	.	.	.	.	.
.	.	.	.	16G\	-cu-	16A/	-cu-	16g\	-cu-	16cc\	-cu-
8F#\J	.	8dd\J	8aa\J	8F#\	-lo-	8A/	-lo-	8a\	-loru(m)	8cc\	-lo-
!LO:TX:a:t=P:problem:mixed beam	!	!	!	!	!	!	!	!	!	!	!
8G\L	.	8dd\L	8dd\L	8G\	-rum	8B\	-ru(m)	8g\	.	8b\	-ru(m)
!	!	!	!	!LO:LB:g=original	!	!	!	!	!	!	!
8D\	.	8dd\	8gg\	4D/	a-	4d\	A-	(>8g\L	A-	4a\	A-
!LO:SIC:s=DD	!	!	!	!	!	!	!	!	!	!	!
8EE/J	.	8dd\J	8aa\J	.	.	.	.	8f#\J)	-men	.	.
=27	=27	=27	=27	=27	=27	=27	=27	=27	=27	=27	=27
!LO:TX:a:t=P:problem:mixed beam	!	!	!	!	!	!	!	!	!	!	!
8GG/L	.	8dd\L	8gg\L	8GG,/	-men	4.d\	-men	8g\	.	8b\	-men
8G\	.	8dd\	8gg\	8G\	A-	.	.	8b\	A-	8r	.
8F#\J	.	8ff#\J	8aa\J	8F#\	-men	.	.	8a\	-men	8r	.
*	*	*	*	*	*ij	*	*	*	*	*	*
!	!	!LO:LB:g=original	!	!	!	!	!	!	!	!	!
8E\L	.	8gg\L	8bb\L	(>8E\L	A-	8r	.	(>8g\L	A-	4ee\	A-
8F#\	.	8ee\	8aa\	8F#\J)	.	8B\	A-	8a\J)	.	.	.
8G\J	.	8bb\J	8gg\J	8G\	-men	8B\	-men	8b\	-men	8dd\	-men
*	*	*	*	*	*Xij	*	*	*	*	*	*
8r	.	8r	8r	8r	.	8A\L	A-	4r	.	(>8cc\L	A-
8A\L	.	8cc\L	8ee\L	8A\	A-	8B\	.	.	.	8dd\J)	.
8G\J	.	8dd\J	8gg\J	8G\	.	8c\J	.	8r	.	8ee\	-men
8F#\L	.	4dd\	8aa\L	8F#\L	.	8A\L	.	8r	.	8r	.
8G\	.	.	8gg\	8G\	.	8B\	.	8b\	a-	8dd\	A-
8A\J	.	8cc\	8ff#\J	8A\J	.	8c\J	.	8a\	-men	8cc\	.
!	!	!	!LO:LB:g=original	!	!	!	!	!	!	!	!
=28	=28	=28	=28	=28	=28	=28	=28	=28	=28	=28	=28
8B\L	.	8b\L	8gg\L	8B\L	.	8d\L	.	8g\L	A-	(>8b\L	.
8A\	.	8cc\	8ff#\	8A\	.	8c\	.	8a\J	.	8cc\J)	.
8G\J	.	8dd\J	8gg\J	8G\J	.	8B\J	.	8b\	-men	(>8dd\L	.
*	*	*	*	*	*	*	*	*	*ij	*	*
8c\L	.	8ee\L	8gg\L	8c\L	.	8c\L	.	4g\	a-	8ee\J)	.
8B\	.	8dd\	8gg\	8B\	.	8d\	.	.	.	(>8dd\L	.
8A\J	.	8cc\J	8ff#\J	8A\J	.	8e\J	.	8a\	-men	8cc\J)	.
*	*	*	*	*	*	*	*	*	*Xij	*	*
!	!	!	!	!	!	!	!	!	!	!LO:LB:g=original	!
8G\L	.	8dd\L	8gg\L	8G,\	-men	8B\	-men	4g\	a-	8dd\	-men
8E\	.	8dd\	8gg\	8E\L	a-	(>8B\L	A-	.	.	8dd\L	A-
!	!	!	!	!	!	!LO:TX:a:t=P:problem:niewidoczna główka nuty. Prawdopodobnie 8A	!	!	!	!	!
8A\J	.	8cc#X\J	8aa\J	8A\J	.	8A\J)	.	8e\	.	8cc#X\J	.
8D\L	.	8dd\L	8aa\L	8D/	-men	8A/	-men	8f#,\	-men	8dd\	-men
*	*	*	*	*	*ij	*	*	*	*	*	*
8D\	.	8a\	8dd\	8D/	a-	8f#\L	A-	8f#\	A-	8r	.
!	!	!	!	!	!	!	!	!LO:LB:g=original	!	!	!
8E\J	.	8cc#X\J	8gg\J	8E\	.	8e\J	.	8g\	.	8r	.
=29	=29	=29	=29	=29	=29	=29	=29	=29	=29	=29	=29
*	*	*	*	*	*	*	*	*	*	*2\right	*
8F#\L	X 6	8dd\L	8ff#\L	8F#\L	.	8d\	-men	8a\L	.	2.ee\	A-
*	*	*	*	*	*	*	*ij	*	*	*	*
8D\	.	8ff#\	8aa\	8D\	.	8d\	a-	8f#\	.	.	.
8G\J	.	8gg\J	8bb\J	8G\J	.	8d\	-men	8b\J	.	.	.
!	!	!	!	!LO:LB:g=original	!	!LO:LB:g=original	!	!	!	!	!
8F#\L	X 6	8dd\L	8ff#\L	8F#\L	.	4d\	a-	8a\L	.	.	.
8D\	.	8ff#\	8aa\	8D\	.	.	.	8f#\	.	.	.
8G\J	.	8gg\J	8bb\J	8G\J	.	8B\	-men	8b\J	.	.	.
*	*	*	*	*	*	*	*Xij	*	*	*	*
!LO:LB:g=original	!	!	!	!	!	!	!	!	!	!	!
8C/L	X 5	8ee\L	8gg\L	8C,/	-men	(>8c\	A-	8a,\	-men	8ee\	-men
*	*	*	*	*	*	*	*	*	*ij	*	*ij
8D/	X 4	8dd\	8gg\	4D/	a-	4A/)	.	4a\	a-	4dd\	A-
8DD/J	X 3	8cc\J	8ff#\J	.	.	.	.	.	.	.	.
8GG/L	.	8dd\L	8gg\L	8GG,/	-men	8B,\	-men	8g\	-men	8dd\	-men
*	*	*	*	*	*Xij	*	*	*	*	*	*Xij
8C/	.	8ee\	8gg\	8C/	a-	8c\	A-	8g\	a-	8ee\	A-
8BB/J	.	8dd\J	8ff#\J	8BB/	-men	8d\	-men	8g\	-men	8dd\	-men
*	*	*	*	*	*	*	*	*	*Xij	*	*
!	!	!LO:TX:a:t=P:problem:przed kreską taktową znajduje się metrum "C"	!	!	!	!	!	!	!	!	!
!	!	!LO:LB:g=original	!	!	!	!	!	!	!	!	!
=30	=30	=30	=30	=30	=30	=30	=30	=30	=30	=30	=30
*M4/4	*	*M4/4	*M4/4	*M4/4	*	*M4/4	*	*M4/4	*	*M4/4	*
*met(c)	*	*met(C.)	*met(C.)	*met(C.)	*	*met(C.)	*	*met(C.)	*	*met(C.)	*
.	5 3	.	.	.	.	.	.	.	.	.	.
*	*	*	*	*	*	*	*ij	*	*	*	*
1C	6 4	4ee\	4.gg\	1C	A-	4.c\	A-	4.g\	A-	4.ee\	A-
.	.	4ee\	.	.	.	.	.	.	.	.	.
.	.	.	8gg\	.	.	8c\	-men	8g\	-men	8ee\	-men
*	*	*	*	*	*	*	*Xij	*	*	*	*
*	*	*2\right	*2\right	*	*	*	*	*	*	*	*
.	.	2ff#\	2aa\	.	.	4c\	A-	4f#\	A-	2cc\	.
.	.	.	.	.	.	4d\	.	4a\	.	.	.
=31	=31	=31	=31	=31	=31	=31	=31	=31	=31	=31	=31
!LO:TX:a:t=P:problem:nuta GG zapisana bardzo ozdobnie w źródle	!	!LO:TX:a:t=P:problem:nuta gg zapisana bardzo ozdobnie w źródle	!	!LO:TX:a:t=P:problem:nuta GG zapisana bardzo ozdobnie w źródle	!	!LO:TX:a:t=P:problem:nuta d zapisana bardzo ozdobnie w źródle	!	!LO:TX:a:t=P:problem:nuta g zapisana bardzo ozdobnie w źródle	!	!LO:TX:a:t=P:problem:partia kończy się w t. 30. Podwójna ozdobna kreska taktowa	!
1GG;>	.	1gg	1bb;>	1GG;;<	-men	1d	-men	1g	-men	1ryy	.
!LO:TX:b:t=P:problem:brak kreski	!	!	!LO:TX:b:t=P:problem:brak kreski	!	!	!	!	!LO:TX:b:t=P:problem:brak kreski	!	!	!
!	!	!LO:TX:b:t=P:problem:brak kreski	!	!LO:TX:b:t=P:problem:brak kreski	!	!	!	!	!	!	!
==-	==-	==-	==-	==-	==-	==-	==-	==-	==-	==	==
*-	*-	*-	*-	*-	*-	*-	*-	*-	*-	*-	*-
!!!system-decoration: [(s1,s2,s3,s4)][(s5,s6)]s7
!!!RDF**kern: > = above
!!!RDF**kern: < = below
!!!EED: Mateusz Mrugas
!!!EST: 2020-11-07
!!!ENC: Marcin Jachim
!!!END: 2020-05-05
